; code generated by Ferrobotics Device Controller
M84 X Y Z S12000 ; set timeout
G90 ; use absolute positioning
G21 ; use milimeters
G01 X0.0 Y0.0 Z10.0 F1000.0    ; Move to [0.0, 0.0, 10.0] at speed 1000.0
G01 X16.0 Y66.0 Z10.0 F1000.0    ; Move to [16.0, 66.0, 10.0] at speed 1000.0
G01 X61.0 Y60.0 Z10.0 F1000.0    ; Move to [61.0, 60.0, 10.0] at speed 1000.0
G01 X63.0 Y81.0 Z10.0 F1000.0    ; Move to [63.0, 81.0, 10.0] at speed 1000.0
G01 X47.0 Y87.0 Z10.0 F1000.0    ; Move to [47.0, 87.0, 10.0] at speed 1000.0
G01 X44.0 Y51.0 Z10.0 F1000.0    ; Move to [44.0, 51.0, 10.0] at speed 1000.0
G04 P15000.0    ; Wait 15000.0 ms
G01 X82.0 Y51.0 Z10.0 F1000.0    ; Move to [82.0, 51.0, 10.0] at speed 1000.0
G01 X65.0 Y28.0 Z10.0 F1000.0    ; Move to [65.0, 28.0, 10.0] at speed 1000.0
G01 X33.0 Y76.0 Z10.0 F1000.0    ; Move to [33.0, 76.0, 10.0] at speed 1000.0
G01 X77.0 Y47.0 Z10.0 F1000.0    ; Move to [77.0, 47.0, 10.0] at speed 1000.0
G04 P15000.0    ; Wait 15000.0 ms
